packages/icons/src/lib/svgs/credit-card.svg

<svg
        aria-hidden="true"
        data-testid="test-icon"
        fill="none"
        
        viewBox="0 0 24 24"
        
        xmlns="http://www.w3.org/2000/svg"
        
    >
        <title>credit card icon</title>
        <path
            d="M20.2986 4H3.66667C2.72917 4 2 4.78571 2 5.71429V18.2857C2 19.25 2.72917 20 3.66667 20H20.2986C21.2361 20 22 19.25 22 18.2857V5.71429C22 4.78571 21.2361 4 20.2986 4ZM3.875 5.71429H20.0903C20.2292 5.71429 20.2986 5.82143 20.2986 5.92857V8H3.66667V5.92857C3.66667 5.82143 3.73611 5.71429 3.875 5.71429ZM20.0903 18.2857H3.875C3.73611 18.2857 3.66667 18.2143 3.66667 18.0714V10H20.2986V18.0714C20.2986 18.2143 20.2292 18.2857 20.0903 18.2857ZM8.66667 15C8.66667 14.7857 8.45833 14.5714 8.25 14.5714H5.75C5.50694 14.5714 5.33333 14.7857 5.33333 15V16.1429C5.33333 16.3929 5.50694 16.5714 5.75 16.5714H8.25C8.45833 16.5714 8.66667 16.3929 8.66667 16.1429V15ZM15.3333 15C15.3333 14.7857 15.125 14.5714 14.9167 14.5714H10.1944C9.95139 14.5714 9.77778 14.7857 9.77778 15V16.1429C9.77778 16.3929 9.95139 16.5714 10.1944 16.5714H14.9167C15.125 16.5714 15.3333 16.3929 15.3333 16.1429V15Z"
            fill="currentColor"
        />
    </svg>

<svg aria-hidden="true" data-testid="test-icon" fill="currentColor" viewBox="0 0 24 24" xmlns="http://www.w3.org/2000/svg"><path d="M20.299 4H3.667C2.729 4 2 4.786 2 5.714v12.572C2 19.25 2.73 20 3.667 20h16.632c.937 0 1.701-.75 1.701-1.714V5.714C22 4.786 21.236 4 20.299 4zM3.875 5.714H20.09c.14 0 .209.107.209.215V8H3.667V5.929c0-.108.07-.215.208-.215zM20.09 18.286H3.875c-.139 0-.208-.072-.208-.215V10h16.632v8.071c0 .143-.07.215-.209.215zM8.667 15c0-.214-.209-.429-.417-.429h-2.5c-.243 0-.417.215-.417.429v1.143c0 .25.174.428.417.428h2.5a.428.428 0 00.417-.428V15zm6.666 0c0-.214-.208-.429-.416-.429h-4.723c-.243 0-.416.215-.416.429v1.143c0 .25.173.428.416.428h4.723a.428.428 0 00.416-.428V15z"/></svg>
